_site/img/about/javascript.svg

<svg viewBox="0 0 569.07 646.75" xmlns="http://www.w3.org/2000/svg"><g transform="translate(-639.93 -156)"><path d="m692.75 737.5-52.82-581.5 569.07.22-52.38 580.83-232.62 65.7zm421-31.7 44.17-498h-233l1.77 549.31zm-210.63-425.06h-56.68l-.66 298.07-109.84-30 .22 68.13 167 45.06v-381.26z" fill="#d4b830"/><path d="m884.53 656.49c-7.33-2.22-43.54-12-80.42-22l-66.87-18v-33.49c0-32.88 0-33.55 3.33-32.44 1.78.67 26.22 7.33 54.21 15.11l50.89 14 .52-148.67v-148.71h55.89v189.1c0 150.25-.44 189.09-2 189.09-1.11-.22-8.22-2-15.55-4z" fill="none" opacity=".99"/><path d="m736.2 617-.2-68.12s70.19 19.76 109.95 30l.64-297.88h56.53v381.08z" fill="#ebebeb" fill-opacity=".92" opacity=".99"/><path d="m924.86 207.5h233l-44.17 498.05-188.83 51.27zm177.2 414.39 15.34-186.1-113.35 12.64v-99.37l120.9-.45 4.89-67.87-182.47.88 2.45 247.11 110.23-18.85-1.55 55-111.13 29.5 1.11 67.43 153.58-39.93z" fill="#fdd83c"/></g></svg>

<svg id="Layer_1" data-name="Layer 1" xmlns="http://www.w3.org/2000/svg" viewBox="0 0 569.07 646.75"><defs><style>.cls-1{fill:#d4b830;}.cls-2,.cls-3{fill:#ebebeb;opacity:0.99;isolation:isolate;}.cls-2{fill-opacity:0;}.cls-3{fill-opacity:0.92;}.cls-4{fill:#fdd83c;}</style></defs><title>javascript</title><g id="g5193"><path id="path5113" class="cls-1" d="M692.75,737.5,639.93,156l569.07.22-52.38,580.83L924,802.75Zm421-31.7,44.17-498h-233l1.77,549.31ZM903.12,280.74H846.44l-.66,298.07-109.84-30,.22,68.13,167,45.06V280.74Z" transform="translate(-639.93 -156)"/><path id="path5159" class="cls-2" d="M884.53,656.49c-7.33-2.22-43.54-12-80.42-22l-66.87-18V583c0-32.88,0-33.55,3.33-32.44,1.78.67,26.22,7.33,54.21,15.11l50.89,14L846.19,431V282.29h55.89v189.1c0,150.25-.44,189.09-2,189.09-1.11-.22-8.22-2-15.55-4Z" transform="translate(-639.93 -156)"/><path id="path5157" class="cls-3" d="M736.2,617,736,548.88s70.19,19.76,109.95,30L846.59,281h56.53V662.08L736.2,617Z" transform="translate(-639.93 -156)"/><path id="path5117" class="cls-4" d="M924.86,207.5h233l-44.17,498.05L924.86,756.82Zm177.2,414.39,15.34-186.1-113.35,12.64V349.06l120.9-.45,4.89-67.87-182.47.88,2.45,247.11,110.23-18.85-1.55,55-111.13,29.5,1.11,67.43,153.58-39.93Z" transform="translate(-639.93 -156)"/></g></svg>
